X:6
T:Rêverie (pour Gaëtan)
C:Bruno Scherrer
L:1/8
%%score 2 1 3
M:4/4
K:Cmaj
V:1
GA|:B4-Bc3-|c4(3B2A2G2|ABF6-|F2_E3_D3|
D3A-A4-|A8|z8|[1z6GA:|[2z8]|
g3d3c2-|c8|g3d3c2-|c8|
g3d3c2-|c6_Bc-|c8|z8|
g3d3c2-|c8|g3d3c2-|c8|
g3d3c2-|c6_BA-|A8|AG3GF3|
FG2G-G4-|G8|z8|z8|
z8|z8|z8|z6GA:|
V:2
x2 | "^A""G"x7 "Eb/G"x | x8 | "G"x7 "Eb/G"x | x8 | 
| "G"x7 "Eb/G"x | x8 | "G"x7 "Eb/G"x |x8 |x8 |
| "AbΔ"x8 | x8 | "Am7"x8 | x8 | 
| "^B""Bb6"x8 | x8  | "Bb6"x8 | x8 |
| "EbΔ"x8 | x8 | "Em7"x8 | x8 | 
| "F6"x8 | x8  | "F6"x8 | x8 |
| "^A'""G"x7 "Eb/G"x | x8 | "G"x7 "Eb/G"x | x8 | 
| "G"x7 "Eb/G"x | x8 | "G"x7 "Eb/G"x |x8 |
| x8 | x8 | x8 | x8 | :|
V:3
z2|:G,,3D,2G,2_E,-|_E,8 | G,,3D,2G,2_E,-|_E,8 |
G,,3D,2G,2_E,-|_E,8 | G,,3D,2G,2_E,-| _E,8:|  _E,8 ] |
_A,,3_E,3G,2-|G,8 | A,,3E,3G,2-|G,8|
_B,,3F,3G,2-|G,8|_B,,3F,3G,2-|G,8|
_E,,3_B,,3D,2-|D,8|E,,3B,,3D,2-|D,8|
F,,3C,3D,2-|D,8|F,,3C,3D,2-|D,8|
G,,3D,2G,2_E,-|_E,8 | G,,3D,2G,2_E,-|_E,8 |
G,,3D,2G,2_E,-|_E,8 | G,,3D,2G,2_E,-|_E,8:|




